X:57
T:Rondo Alla Turca
C:Mozart (Piano Sonata A K.331-3)
N:Transcribed by Wendy Anthony 27 Jan 2006 (Mozart's 250th BD)
L:1/8
Q:1/4=120
M:2/4
K:C
z2 B/A/^G/A/ |: "Part A"cE d/c/B/c/ | eE f/e/^d/e/ | b/a/^g/a/ b/a/g/a/ | c'E ac' | 
ba ga | ba ga | ba g^f |1 e2 B/A/^G/A/ :|2 e2 ef |: "Part B"gg a/g/f/e/ | dG ef | 
gg a/g/f/e/ | d2 cd | ee f/e/d/c/ | BE cd | ee f/e/d/c/ | B2 B/A/^G/A/ | cE d/c/B/c/ | 
eE f/e/^d/e/ | b/a/^g/a/ b/a/g/a/ | c'2 ab | c'b a^g | ae fd | cE B/4c/4B/4c/4B/4c/4A/4B/4 | 
|1 A2 ef :| 
K:A
|2 A2 ab |: "Part C"c'2 ab | c'b ag | fg ab | ge ab | c'2 ab | c'b ag | fb ge | 
|1 a2 ab :|2 a2 c'/d'/c'/b/ |: "Part D"a/b/a/g/ f/a/g/f/ | =f/^f/g/=f/ c/^d/f/c/ | 
f/=f/^f/g/ a/g/a/b/ | c'/=c'/^c'/=c'/ ^c'/d'/c'/b/ | a/b/a/g/ f/a/g/f/ | e/f/g/e/ c/^d/e/c/ | 
^d/e/f/d/ =c/^c/d/=c/ |1 c2 c'/d'/c'/b/ :|2 c2 e/d/c/B/ |: "Part E"A/B/c/d/ e/f/g/a/ | 
a/g/f/e/ e/d/c/B/ | A/B/c/d/ e/f/g/a/ | ^ab e/d/c/B/ | A/B/c/d/ e/f/g/a/ | a/g/f/e/ e/d/c/B/ | 
c/e/A/c/ B/d/G/B/ | A2 c'/d'/c'/b/ | a/b/a/g/ f/a/g/f/ | =f/^f/g/=f/ c/^d/f/c/ | 
f/=f/^f/g/ a/g/a/b/ | c'/=c'/^c'/=c'/ ^c'/b/c'/^a/ | d'/c'/d'/c'/ d'/c'/d'/c'/ | 
d'/c'/b/a/ g/a/b/g/ | a/b/c'/f/ =f/^f/g/=f/ |1 f2 e/d/c/B/ :|2 f2 ab |: "Part F"c'2 ab | 
c'b ag | fg ab | ge ab | c'2 ab | c'b ag | fb ge |1 a2 ab :| 
K:C
|2 a2 B/A/^G/A/ |: "Part G"c2 d/c/B/c/ | e2 f/e/^d/e/ | b/a/^g/a/ b/a/g/a/ | c'2 ac' | 
{a}ba ga | {a}ba ga | {a}ba g^f |1 e2 B/A/^G/A/ :|2 e2 ef |: "Part H"gg a/g/f/e/ | 
dG ef | gg a/g/f/e/ | d2 cd | ee f/e/d/c/ | BE cd | ee f/e/d/c/ | B2 B/A/^G/A/ | 
c2 d/c/B/c/ | e2 f/e/^d/e/ | b/a/^g/a/ b/a/g/a/ | c'2 ab | c'b a^g | ae fd | c2 B/4c/4B/4c/4B/4c/4A/4B/4 | 
|1 A2 ef :| 
K:A
|2 A2 A/a/B/b/ |: "Part I"c/c'/z A/a/B/b/ | c/c'/B/b/ A/a/G/g/ | F/f/G/g/ A/a/B/b/ | 
G/g/E/e/ A/a/B/b/ | c/c'/z A/a/B/b/ | c/c'/B/b/ A/a/G/g/ | F/f/B/b/ G/g/E/e/ | 
|1 [a2A2] A/a/B/b/ :|2 [a2A2] c'3/2c'/ | "Part J"[c'4a4] | [c'4a4] | d'/c'/b/c'/ d'/c'/b/c'/ | 
[d'4a4] | [c'a][c'a] [c'a][c'a] | [b3g3]e' | [c'4a4] | [c'4a4] | d'/c'/b/c'/ d'/c'/b/c'/ | 
[d'4a4] | [c'4a4] | [bg][bg] [bg][bg] | a3/2e/4a/4 c'3/2[c'/4e/4]a/4 | c'7/2z/8e/4a/8 | 
c'4 | d'/c'/b/c'/ d'/c'/b/c'/ | d'4 | {d'}c'{d'}c' {d'}c'{d'}c' | b3e' | [c'4a4] | 
[c'4a4] | d'/c'/b/c'/ d'/c'/b/c'/ | [d'4a4] | [c'4a4] | [bg][bg] [bg][bg] | [a3A3][c'c] | 
[a3A3][e'e] | [a3A3][c'c] | [aA][c'c] [aA][e'e] | [a2A2] [a2A2] | [a4A4] | 
 

